X:22001
T:Keel Row, The
R:Polka
B:Tuneworks Tunebook 2 (https://www.tuneworks.co.uk/)
G:Tuneworks
Z:Jon Warbrick <jon.warbrick@googlemail.com>
M:4/4
L:1/8
K:D
E |: "D" F4 D3 F | "G" G4 E3 G | "D" F4 D3 F | "A" E3 C A,3 E |
"D" F4 D3 F | "G" G4 E3 G | "G" F3 D"A" E3 C | "D" D7 E :|
|: "D" F3 A A3 d | "G" B4 A3 G | "D" F4 D3 F | "A" E3 C A,3 E |
"D" F3 A A3 d | "G" B4 A3 G | "G" F3 D"A" E3 C |1 "D" D7 E :|2 "D" D7 |]
